TEfficiency/docu3.svg

<svg xmlns="http://www.w3.org/2000/svg" viewBox="0 0 598 375" preserveAspectRatio="none" width="598" height="375">
 <path d="M0,0H598V375H0Z" style="fill: white;"></path>
 <g>
  <g transform="translate(60,38)">
   <path d="M0,0H478V300H0Z" style="fill: white; stroke: black; stroke-width: 1;"></path>
   <svg x="0" y="0" overflow="hidden" width="478" height="300" viewBox="0 0 478 300">
    <g>
     <path d="M3,14l5,12l4,11l5,10l5,11l5,10l4,9l5,10l5,9l5,8l5,9l4,8l5,8l5,8l5,7l4,7l5,7l5,7l5,6l5,7l4,6l5,5l5,6l5,5l5,5l4,5l5,5l5,4l5,5l4,4l5,4l5,4l5,3l5,4l4,3l5,4l5,3l5,3l4,2l5,3l5,2l5,3l5,2l4,2l5,2l5,2l5,2l4,2l5,1l5,2l5,1l5,2l4,1l5,1l5,2l5,1l4,1h5l5,1l5,1l5,1l4,1h5l5,1h5l4,1h5l5,1h5h5l4,1h5h5l5,1h5h4h5h5h5h4l5,1h5h5h5h4h5h5h5h4h5h5h5h5h4h5h5h5h4h5h5" style="fill: none; stroke: #006600; stroke-width: 2;"></path>
    </g>
    <g>
     <path d="M3,242h5h4h5h5h5h4h5h5h5h5h4h5h5h5h4h5h5h5h5h4h5h5h5h5h4h5h5h5h4h5h5h5h5h4h5h5h5h4h5h5h5h5h4h5h5h5h4h5h5h5h5h4h5h5h5h4h5h5h5h5h4h5h5h5h4h5h5h5h5h4h5h5h5h5h4h5h5h5h4h5h5h5h5h4h5h5h5h4h5h5h5h5h4h5h5h5h4h5h5" style="fill: none; stroke: #0000ff; stroke-width: 2;"></path>
    </g>
    <g>
     <path d="M3,37l5,110l4,34l5,18l5,11l5,9l4,6l5,5l5,3l5,4l5,2l4,3l5,2l5,2l5,1l4,2l5,1l5,1l5,1l5,1l4,1l5,1l5,1h5l5,1h4l5,1h5l5,1h4l5,1h5h5l5,1h4h5h5l5,1h4h5h5h5h5l4,1h5h5h5h4h5h5h5h5h4h5h5h5h4l5,-1h5h5h5h4h5l5,-1h5h4h5l5,-1h5h5l4,-1h5l5,-1h5l5,-1h4l5,-1h5l5,-1l4,-1l5,-1l5,-1l5,-1l5,-1l4,-1l5,-2l5,-1l5,-2l4,-2l5,-3l5,-2l5,-4l5,-3l4,-5l5,-6l5,-9l5,-11l4,-18l5,-34l5,-110" style="fill: none; stroke: #ff0000; stroke-width: 2;"></path>
    </g>
    <g>
     <path d="M3,300h5h4h5h5l5,-1h4h5l5,-1h5l5,-1l4,-1l5,-1l5,-1l5,-2l4,-1l5,-2l5,-2l5,-2l5,-2l4,-2l5,-2l5,-3l5,-3l5,-2l4,-3l5,-3l5,-3l5,-3l4,-4l5,-3l5,-3l5,-4l5,-3l4,-4l5,-3l5,-4l5,-3l4,-4l5,-3l5,-3l5,-4l5,-3l4,-3l5,-3l5,-3l5,-3l4,-2l5,-3l5,-2l5,-2l5,-2l4,-2l5,-2l5,-1l5,-1l4,-1l5,-1l5,-1h5h5h4l5,1l5,1l5,1l4,1l5,2l5,1l5,2l5,3l4,2l5,3l5,3l5,3l5,4l4,4l5,4l5,4l5,4l4,4l5,5l5,4l5,5l5,5l4,4l5,5l5,5l5,4l4,5l5,4l5,5l5,4l5,3l4,4l5,3l5,3l5,2l4,2l5,1l5,1" style="fill: none; stroke: #cd00ff; stroke-width: 2;"></path>
    </g>
   </svg>
   <g>
    <g transform="translate(0,300)">
     <path d="M0,0h478M0,-11V0M10,-6V0M19,-6V0M29,-6V0M38,-6V0M48,-11V0M57,-6V0M67,-6V0M76,-6V0M86,-6V0M96,-11V0M105,-6V0M115,-6V0M124,-6V0M134,-6V0M143,-11V0M153,-6V0M163,-6V0M172,-6V0M182,-6V0M191,-11V0M201,-6V0M210,-6V0M220,-6V0M229,-6V0M239,-11V0M249,-6V0M258,-6V0M268,-6V0M277,-6V0M287,-11V0M296,-6V0M306,-6V0M315,-6V0M325,-6V0M335,-11V0M344,-6V0M354,-6V0M363,-6V0M373,-6V0M382,-11V0M392,-6V0M402,-6V0M411,-6V0M421,-6V0M430,-11V0M440,-6V0M449,-6V0M459,-6V0M468,-6V0M478,-11V0" style="stroke: black; stroke-width: 1;"></path>
     <g font-family="Arial" font-size="13" space="preserve" fill="black" text-anchor="middle">
      <text dy=".8em" transform="translate(0,1)">
       0
      </text>
      <text dy=".8em" transform="translate(48,1)">
       0.1
      </text>
      <text dy=".8em" transform="translate(96,1)">
       0.2
      </text>
      <text dy=".8em" transform="translate(143,1)">
       0.3
      </text>
      <text dy=".8em" transform="translate(191,1)">
       0.4
      </text>
      <text dy=".8em" transform="translate(239,1)">
       0.5
      </text>
      <text dy=".8em" transform="translate(287,1)">
       0.6
      </text>
      <text dy=".8em" transform="translate(335,1)">
       0.7
      </text>
      <text dy=".8em" transform="translate(382,1)">
       0.8
      </text>
      <text dy=".8em" transform="translate(430,1)">
       0.9
      </text>
      <text dy=".8em" transform="translate(478,1)">
       1
      </text>
     </g>
    </g>
    <g>
     <path d="M0,0v300M18,300H0M9,294H0M9,288H0M9,283H0M9,277H0M18,271H0M9,265H0M9,259H0M9,253H0M9,248H0M18,242H0M9,236H0M9,230H0M9,224H0M9,218H0M18,213H0M9,207H0M9,201H0M9,195H0M9,189H0M18,183H0M9,178H0M9,172H0M9,166H0M9,160H0M18,154H0M9,148H0M9,143H0M9,137H0M9,131H0M18,125H0M9,119H0M9,113H0M9,108H0M9,102H0M18,96H0M9,90H0M9,84H0M9,78H0M9,73H0M18,67H0M9,61H0M9,55H0M9,49H0M9,43H0M18,38H0M9,32H0M9,26H0M9,20H0M9,14H0M18,8H0M9,3H0" style="stroke: black; stroke-width: 1;"></path>
     <g font-family="Arial" font-size="13" space="preserve" fill="black" text-anchor="end">
      <text dy=".4em" transform="translate(-2,300)">
       0
      </text>
      <text dy=".4em" transform="translate(-2,271)">
       0.5
      </text>
      <text dy=".4em" transform="translate(-2,242)">
       1
      </text>
      <text dy=".4em" transform="translate(-2,213)">
       1.5
      </text>
      <text dy=".4em" transform="translate(-2,183)">
       2
      </text>
      <text dy=".4em" transform="translate(-2,154)">
       2.5
      </text>
      <text dy=".4em" transform="translate(-2,125)">
       3
      </text>
      <text dy=".4em" transform="translate(-2,96)">
       3.5
      </text>
      <text dy=".4em" transform="translate(-2,67)">
       4
      </text>
      <text dy=".4em" transform="translate(-2,38)">
       4.5
      </text>
      <text dy=".4em" transform="translate(-2,8)">
       5
      </text>
     </g>
    </g>
   </g>
  </g>
  <g transform="translate(60,2)" font-family="Arial" font-size="19" space="preserve">
   <g transform="translate(83,20)">
    <text fill="black" font-size="21">
     Beta distributions as priors;ε;P(ε)
    </text>
   </g>
  </g>
  <g transform="translate(150,41)" font-family="Arial" font-size="28" space="preserve">
   <path d="M0,0H359V146H0Z" style="fill: white; stroke: black; stroke-width: 1;"></path>
   <path d="M11,21H79" style="stroke: #0000ff; stroke-width: 2;"></path>
   <text fill="black" text-anchor="start" dy=".4em" transform="translate(90,21)">
    a=1, b=1
   </text>
   <path d="M11,56H79" style="stroke: #ff0000; stroke-width: 2;"></path>
   <text fill="black" text-anchor="start" dy=".4em" transform="translate(90,56)">
    a=0.5, b=0.5
   </text>
   <path d="M11,90H79" style="stroke: #006600; stroke-width: 2;"></path>
   <text fill="black" text-anchor="start" dy=".4em" transform="translate(90,90)">
    a=1, b=5
   </text>
   <path d="M11,125H79" style="stroke: #cd00ff; stroke-width: 2;"></path>
   <text fill="black" text-anchor="start" dy=".4em" transform="translate(90,125)">
    a=4, b=3
   </text>
  </g>
 </g>
</svg>

<svg xmlns="http://www.w3.org/2000/svg" viewBox="0 0 598 375" preserveAspectRatio="none" width="598" height="375">
 <path d="M0,0H598V375H0Z" style="fill: white;"></path>
 <g>
  <g transform="translate(60,38)">
   <path d="M0,0H478V300H0Z" style="fill: white; stroke: black; stroke-width: 1;"></path>
   <svg x="0" y="0" overflow="hidden" width="478" height="300" viewBox="0 0 478 300">
    <g>
     <path d="M3,14L8,26L12,37L17,47L22,58L27,68L31,77L36,87L41,96L46,104L51,113L55,121L60,129L65,137L70,144L74,151L79,158L84,165L89,171L94,178L98,184L103,189L108,195L113,200L118,205L122,210L127,215L132,219L137,224L141,228L146,232L151,236L156,239L161,243L165,246L170,250L175,253L180,256L184,258L189,261L194,263L199,266L204,268L208,270L213,272L218,274L223,276L227,278L232,279L237,281L242,282L247,284L251,285L256,286L261,288L266,289L270,290L275,290L280,291L285,292L290,293L294,294L299,294L304,295L309,295L313,296L318,296L323,297L328,297L333,297L337,298L342,298L347,298L352,299L357,299L361,299L366,299L371,299L376,299L380,299L385,300L390,300L395,300L400,300L404,300L409,300L414,300L419,300L423,300L428,300L433,300L438,300L443,300L447,300L452,300L457,300L462,300L466,300L471,300L476,300" style="fill: none; stroke: #006600; stroke-width: 2;"></path>
    </g>
    <g>
     <path d="M3,242L8,242L12,242L17,242L22,242L27,242L31,242L36,242L41,242L46,242L51,242L55,242L60,242L65,242L70,242L74,242L79,242L84,242L89,242L94,242L98,242L103,242L108,242L113,242L118,242L122,242L127,242L132,242L137,242L141,242L146,242L151,242L156,242L161,242L165,242L170,242L175,242L180,242L184,242L189,242L194,242L199,242L204,242L208,242L213,242L218,242L223,242L227,242L232,242L237,242L242,242L247,242L251,242L256,242L261,242L266,242L270,242L275,242L280,242L285,242L290,242L294,242L299,242L304,242L309,242L313,242L318,242L323,242L328,242L333,242L337,242L342,242L347,242L352,242L357,242L361,242L366,242L371,242L376,242L380,242L385,242L390,242L395,242L400,242L404,242L409,242L414,242L419,242L423,242L428,242L433,242L438,242L443,242L447,242L452,242L457,242L462,242L466,242L471,242L476,242" style="fill: none; stroke: #0000ff; stroke-width: 2;"></path>
    </g>
    <g>
     <path d="M3,37L8,147L12,181L17,199L22,210L27,219L31,225L36,230L41,233L46,237L51,239L55,242L60,244L65,246L70,247L74,249L79,250L84,251L89,252L94,253L98,254L103,255L108,256L113,256L118,257L122,257L127,258L132,258L137,259L141,259L146,260L151,260L156,260L161,261L165,261L170,261L175,261L180,262L184,262L189,262L194,262L199,262L204,262L208,263L213,263L218,263L223,263L227,263L232,263L237,263L242,263L247,263L251,263L256,263L261,263L266,263L270,263L275,262L280,262L285,262L290,262L294,262L299,262L304,261L309,261L313,261L318,261L323,260L328,260L333,260L337,259L342,259L347,258L352,258L357,257L361,257L366,256L371,256L376,255L380,254L385,253L390,252L395,251L400,250L404,249L409,247L414,246L419,244L423,242L428,239L433,237L438,233L443,230L447,225L452,219L457,210L462,199L466,181L471,147L476,37" style="fill: none; stroke: #ff0000; stroke-width: 2;"></path>
    </g>
    <g>
     <path d="M3,300L8,300L12,300L17,300L22,300L27,299L31,299L36,299L41,298L46,298L51,297L55,296L60,295L65,294L70,292L74,291L79,289L84,287L89,285L94,283L98,281L103,279L108,276L113,273L118,271L122,268L127,265L132,262L137,259L141,255L146,252L151,249L156,245L161,242L165,238L170,235L175,231L180,228L184,224L189,221L194,218L199,214L204,211L208,208L213,205L218,202L223,199L227,197L232,194L237,192L242,190L247,188L251,186L256,184L261,183L266,182L270,181L275,180L280,179L285,179L290,179L294,179L299,180L304,181L309,182L313,183L318,185L323,186L328,188L333,191L337,193L342,196L347,199L352,202L357,206L361,210L366,214L371,218L376,222L380,226L385,231L390,235L395,240L400,245L404,249L409,254L414,259L419,263L423,268L428,272L433,277L438,281L443,284L447,288L452,291L457,294L462,296L466,298L471,299L476,300" style="fill: none; stroke: #cd00ff; stroke-width: 2;"></path>
    </g>
   </svg>
   <g>
    <g transform="translate(0,300)">
     <path d="M0,0h478M0,-11V0M10,-6V0M19,-6V0M29,-6V0M38,-6V0M48,-11V0M57,-6V0M67,-6V0M76,-6V0M86,-6V0M96,-11V0M105,-6V0M115,-6V0M124,-6V0M134,-6V0M143,-11V0M153,-6V0M163,-6V0M172,-6V0M182,-6V0M191,-11V0M201,-6V0M210,-6V0M220,-6V0M229,-6V0M239,-11V0M249,-6V0M258,-6V0M268,-6V0M277,-6V0M287,-11V0M296,-6V0M306,-6V0M315,-6V0M325,-6V0M335,-11V0M344,-6V0M354,-6V0M363,-6V0M373,-6V0M382,-11V0M392,-6V0M402,-6V0M411,-6V0M421,-6V0M430,-11V0M440,-6V0M449,-6V0M459,-6V0M468,-6V0M478,-11V0" style="stroke: black; stroke-width: 1;"></path>
     <g font-family="Arial" font-size="13" space="preserve" fill="black" text-anchor="middle">
      <text dy=".8em" transform="translate(0,1)">
       0
      </text>
      <text dy=".8em" transform="translate(48,1)">
       0.1
      </text>
      <text dy=".8em" transform="translate(96,1)">
       0.2
      </text>
      <text dy=".8em" transform="translate(143,1)">
       0.3
      </text>
      <text dy=".8em" transform="translate(191,1)">
       0.4
      </text>
      <text dy=".8em" transform="translate(239,1)">
       0.5
      </text>
      <text dy=".8em" transform="translate(287,1)">
       0.6
      </text>
      <text dy=".8em" transform="translate(335,1)">
       0.7
      </text>
      <text dy=".8em" transform="translate(382,1)">
       0.8
      </text>
      <text dy=".8em" transform="translate(430,1)">
       0.9
      </text>
      <text dy=".8em" transform="translate(478,1)">
       1
      </text>
     </g>
    </g>
    <g>
     <path d="M0,0v300M18,300H0M9,294H0M9,288H0M9,283H0M9,277H0M18,271H0M9,265H0M9,259H0M9,253H0M9,248H0M18,242H0M9,236H0M9,230H0M9,224H0M9,218H0M18,213H0M9,207H0M9,201H0M9,195H0M9,189H0M18,183H0M9,178H0M9,172H0M9,166H0M9,160H0M18,154H0M9,148H0M9,143H0M9,137H0M9,131H0M18,125H0M9,119H0M9,113H0M9,108H0M9,102H0M18,96H0M9,90H0M9,84H0M9,78H0M9,73H0M18,67H0M9,61H0M9,55H0M9,49H0M9,43H0M18,38H0M9,32H0M9,26H0M9,20H0M9,14H0M18,8H0M9,3H0" style="stroke: black; stroke-width: 1;"></path>
     <g font-family="Arial" font-size="13" space="preserve" fill="black" text-anchor="end">
      <text dy=".4em" transform="translate(-2,300)">
       0
      </text>
      <text dy=".4em" transform="translate(-2,271)">
       0.5
      </text>
      <text dy=".4em" transform="translate(-2,242)">
       1
      </text>
      <text dy=".4em" transform="translate(-2,213)">
       1.5
      </text>
      <text dy=".4em" transform="translate(-2,183)">
       2
      </text>
      <text dy=".4em" transform="translate(-2,154)">
       2.5
      </text>
      <text dy=".4em" transform="translate(-2,125)">
       3
      </text>
      <text dy=".4em" transform="translate(-2,96)">
       3.5
      </text>
      <text dy=".4em" transform="translate(-2,67)">
       4
      </text>
      <text dy=".4em" transform="translate(-2,38)">
       4.5
      </text>
      <text dy=".4em" transform="translate(-2,8)">
       5
      </text>
     </g>
    </g>
   </g>
  </g>
  <g transform="translate(60,2)" font-family="Arial" font-size="19" space="preserve">
   <g transform="translate(83,20)">
    <text fill="black" font-size="21">
     Beta distributions as priors;ε;P(ε)
    </text>
   </g>
  </g>
  <g transform="translate(150,41)" font-family="Arial" font-size="28" space="preserve">
   <path d="M0,0H359V146H0Z" style="fill: white; stroke: black; stroke-width: 1;"></path>
   <path d="M11,21H79" style="stroke: #0000ff; stroke-width: 2;"></path>
   <text fill="black" text-anchor="start" dy=".4em" transform="translate(90,21)">
    a=1, b=1
   </text>
   <path d="M11,56H79" style="stroke: #ff0000; stroke-width: 2;"></path>
   <text fill="black" text-anchor="start" dy=".4em" transform="translate(90,56)">
    a=0.5, b=0.5
   </text>
   <path d="M11,90H79" style="stroke: #006600; stroke-width: 2;"></path>
   <text fill="black" text-anchor="start" dy=".4em" transform="translate(90,90)">
    a=1, b=5
   </text>
   <path d="M11,125H79" style="stroke: #cd00ff; stroke-width: 2;"></path>
   <text fill="black" text-anchor="start" dy=".4em" transform="translate(90,125)">
    a=4, b=3
   </text>
  </g>
 </g>
</svg>
